jsapp/svg-icons/github.svg

<svg height="40" viewBox="0 0 40 40" width="40" xmlns="http://www.w3.org/2000/svg"><path d="m19.951 10c-5.4958333 0-9.951 4.455-9.951 9.9508333 0 4.8455 3.4641667 8.8801667 8.0506667 9.7676667.0401666-.0713333.0626666-.1506667.0626666-.2401667 0-.024-.0021666-.2406666-.0061666-.6501666s-.006-.7668334-.006-1.0715l-.277.0478333c-.1765.0323333-.3993334.0461667-.6683334.0421667-.2688333-.0036667-.5478333-.0318334-.8366666-.0843334-.2891667-.0518333-.558-.1723333-.8068334-.361-.2488333-.1886666-.4255-.4355-.5298333-.7403333l-.1203333-.277c-.0803334-.1846667-.2065-.3895-.3793334-.6141667-.1725-.2246666-.3471666-.3773333-.5236666-.4575l-.0843334-.0603333c-.0561666-.0401667-.1081666-.0885-.1565-.1445-.0481666-.0561667-.0841666-.1123333-.1083333-.1686667-.024-.0563333-.004-.1023333.0601667-.1386666.0643333-.0363334.1805-.0538334.3491666-.0538334l.2408334.0358334c.1605.0323333.3591666.1285.5961666.2891666.2366667.1605.4313334.3691667.5838334.6258334.1846666.3291666.4073333.58.6681666.7526666.261.1726667.5238334.2588334.7888334.2588334.2648333 0 .4935-.02.6863333-.06.1925-.0403334.373-.1005.5418333-.1806667.0721667-.5381667.2688334-.9515.5898334-1.2405-.4575-.048-.8688334-.1203333-1.2341667-.2168333-.3651667-.0963334-.7425-.2526667-1.1316667-.4696667-.3895-.2166667-.7126666-.4856667-.9695-.8066667-.2568333-.3211666-.4675-.7426666-.6321666-1.2643333-.1643334-.522-.2466667-1.1238333-.2466667-1.8061667 0-.9715.3171667-1.7983333.9513333-2.4805-.297-.7305-.269-1.5491666.0843334-2.4563333.2326666-.0723333.5778333-.018 1.0355.1625.4575.1806667.7925.3355 1.0053333.4636667.2128333.1283333.3835.237.5118333.325.7468334-.2086667 1.5173334-.313 2.3118334-.313.7948333 0 1.5655.1043333 2.3121666.313l.4575-.2888334c.313-.1926666.6825-.3693333 1.1076667-.5298333.4255-.1605.7508333-.2046667.9756667-.1325.361.9073333.3933333 1.726.0961666 2.4565.634.6821667.9513334 1.5091667.9513334 2.4803333 0 .6823334-.0826667 1.2863334-.2468334 1.8121667-.1645.526-.3771666.9471667-.6378333 1.2643333-.2611667.3173334-.5863333.5841667-.9756667.8006667-.3893333.2168333-.7666666.3733333-1.132.4696667-.3651666.0965-.7765.1688333-1.234.217.4171667.3611666.626.9311666.626 1.7098333v2.5403333c0 .0121667.0025.0231667.0031667.035 4.1556667-1.1948333 7.1973333-5.022 7.1973333-9.562 0-5.4958333-4.4551666-9.9508333-9.9508333-9.9508333" fill-rule="evenodd"/></svg>

<?xml version="1.0" encoding="UTF-8"?>
<svg width="40px" height="40px" viewBox="0 0 40 40" version="1.1" xmlns="http://www.w3.org/2000/svg" xmlns:xlink="http://www.w3.org/1999/xlink">
    <!-- Generator: Sketch 50.2 (55047) - http://www.bohemiancoding.com/sketch -->
    <title>Icons/github</title>
    <desc>Created with Sketch.</desc>
    <defs>
        <path d="M19.951,10 C14.4551667,10 10,14.455 10,19.9508333 C10,24.7963333 13.4641667,28.831 18.0506667,29.7185 C18.0908333,29.6471667 18.1133333,29.5678333 18.1133333,29.4783333 C18.1133333,29.4543333 18.1111667,29.2376667 18.1071667,28.8281667 C18.1031667,28.4186667 18.1011667,28.0613333 18.1011667,27.7566667 L17.8241667,27.8045 C17.6476667,27.8368333 17.4248333,27.8506667 17.1558333,27.8466667 C16.887,27.843 16.608,27.8148333 16.3191667,27.7623333 C16.03,27.7105 15.7611667,27.59 15.5123333,27.4013333 C15.2635,27.2126667 15.0868333,26.9658333 14.9825,26.661 L14.8621667,26.384 C14.7818333,26.1993333 14.6556667,25.9945 14.4828333,25.7698333 C14.3103333,25.5451667 14.1356667,25.3925 13.9591667,25.3123333 L13.8748333,25.252 C13.8186667,25.2118333 13.7666667,25.1635 13.7183333,25.1075 C13.6701667,25.0513333 13.6341667,24.9951667 13.61,24.9388333 C13.586,24.8825 13.606,24.8365 13.6701667,24.8001667 C13.7345,24.7638333 13.8506667,24.7463333 14.0193333,24.7463333 L14.2601667,24.7821667 C14.4206667,24.8145 14.6193333,24.9106667 14.8563333,25.0713333 C15.093,25.2318333 15.2876667,25.4405 15.4401667,25.6971667 C15.6248333,26.0263333 15.8475,26.2771667 16.1083333,26.4498333 C16.3693333,26.6225 16.6321667,26.7086667 16.8971667,26.7086667 C17.162,26.7086667 17.3906667,26.6886667 17.5835,26.6486667 C17.776,26.6083333 17.9565,26.5481667 18.1253333,26.468 C18.1975,25.9298333 18.3941667,25.5165 18.7151667,25.2275 C18.2576667,25.1795 17.8463333,25.1071667 17.481,25.0106667 C17.1158333,24.9143333 16.7385,24.758 16.3493333,24.541 C15.9598333,24.3243333 15.6366667,24.0553333 15.3798333,23.7343333 C15.123,23.4131667 14.9123333,22.9916667 14.7476667,22.47 C14.5833333,21.948 14.501,21.3461667 14.501,20.6638333 C14.501,19.6923333 14.8181667,18.8655 15.4523333,18.1833333 C15.1553333,17.4528333 15.1833333,16.6341667 15.5366667,15.727 C15.7693333,15.6546667 16.1145,15.709 16.5721667,15.8895 C17.0296667,16.0701667 17.3646667,16.225 17.5775,16.3531667 C17.7903333,16.4815 17.961,16.5901667 18.0893333,16.6781667 C18.8361667,16.4695 19.6066667,16.3651667 20.4011667,16.3651667 C21.196,16.3651667 21.9666667,16.4695 22.7133333,16.6781667 L23.1708333,16.3893333 C23.4838333,16.1966667 23.8533333,16.02 24.2785,15.8595 C24.704,15.699 25.0293333,15.6548333 25.2541667,15.727 C25.6151667,16.6343333 25.6475,17.453 25.3503333,18.1835 C25.9843333,18.8656667 26.3016667,19.6926667 26.3016667,20.6638333 C26.3016667,21.3461667 26.219,21.9501667 26.0548333,22.476 C25.8903333,23.002 25.6776667,23.4231667 25.417,23.7403333 C25.1558333,24.0576667 24.8306667,24.3245 24.4413333,24.541 C24.052,24.7578333 23.6746667,24.9143333 23.3093333,25.0106667 C22.9441667,25.1071667 22.5328333,25.1795 22.0753333,25.2276667 C22.4925,25.5888333 22.7013333,26.1588333 22.7013333,26.9375 L22.7013333,29.4778333 C22.7013333,29.49 22.7038333,29.501 22.7045,29.5128333 C26.8601667,28.318 29.9018333,24.4908333 29.9018333,19.9508333 C29.9018333,14.455 25.4466667,10 19.951,10" id="path-1"></path>
    </defs>
    <g id="Icons/github" stroke="none" stroke-width="1" fill="none" fill-rule="evenodd">
        <mask id="mask-2" fill="white">
            <use xlink:href="#path-1"></use>
        </mask>
        <use id="Mask" fill="#000000" xlink:href="#path-1"></use>
    </g>
</svg>
